!! 00000] TT[00
!! NN
!!!OTL: Nuan xiao zhu
!!!ARE: Asia, China,ÿShandong, Xiajin
!! Ethnic Group: Han
!! III, 332
!!!SCT: C0303
!!!YEM: Copyright 1995, estate of Helmut Schaffrath.
**kern
*ICvox
*Ivox
*M2/4
*k[]
*C:
{4g
8g
8e
=1
4g
8g
8e
=2
4g
8cc
8e
=3
4d}
{8d
8c
=4
4d
8d
8c
=5
4d
8d
8c
=6
8d
8r
8d
8r
=7
8d
4.r}
=8
{4g
8g
8e
=9
4g
8g
8e
=10
4d
4g
=11
4c}
{8c
8A
=12
4c
8c
8A
=13
4c
8c
8A
=14
8c
8r
8c
8r
=15
8c
4.r}
=16
{4a
8a
8g
=17
4a
8a
8g
=18
8a
8g
8a
8cc
=19
8cc
8e
4g}
=20
{8g
8f
4g
=21
8g
8f
4g
=22
8g
8f
4g
=23
8g
8r
8g
8r}
=24
{4a
8a
8cc
=25
4a
8a
8cc
=26
4ee
8ee
8dd
=27
4cc}
{8cc
8b
=28
4cc
8cc
8b
=29
4cc
8cc
8b
=30
8cc
8r
8cc
8r
=31
8cc
4.r}
==
!!!AGN: Xiaodiao, Erge. Xin minge
!! Aehnlich dem Moli Hua? Die Kinder haben hier ihr eigenes Schauspiel.
!!!ONB: ESAC (Essen Associative Code) Database: CHINA
!!!AMT: simple duple
!!!AIN: vox
!!!EED: Helmut Schaffrath
!!!EEV: 1.0
*-
